src/images/single-assets/BTCb.svg

<svg width="256" height="256" viewBox="0 0 256 256" fill="none" xmlns="http://www.w3.org/2000/svg">
<g clip-path="url(#clip0_20873_29)">
<path d="M252.14 158.965C235.044 227.536 165.593 269.268 97.0136 252.168C28.4606 235.072 -13.2694 165.617 3.83357 97.0494C20.9236 28.4704 90.3746 -13.2656 158.934 3.83039C227.51 20.9264 269.236 90.3904 252.14 158.965Z" fill="#F7931A"/>
<path d="M184.401 109.765C186.949 92.7336 173.981 83.5776 156.249 77.4696L162.001 54.3976L147.957 50.8976L142.357 73.3616C138.665 72.4416 134.873 71.5736 131.105 70.7136L136.745 48.1016L122.709 44.6016L116.953 67.6656C113.897 66.9696 110.897 66.2816 107.985 65.5576L108.001 65.4856L88.6336 60.6496L84.8976 75.6496C84.8976 75.6496 95.3176 78.0376 95.0976 78.1856C100.785 79.6056 101.813 83.3696 101.641 86.3536L95.0886 112.637C95.4816 112.737 95.9886 112.881 96.5486 113.105C96.0806 112.989 95.5806 112.861 95.0646 112.737L85.8816 149.557C85.1856 151.285 83.4216 153.877 79.4456 152.893C79.5856 153.097 69.2376 150.345 69.2376 150.345L62.2656 166.421L80.5416 170.977C83.9416 171.829 87.2736 172.721 90.5536 173.561L84.7416 196.896L98.7696 200.396L104.525 177.309C108.357 178.349 112.077 179.309 115.717 180.213L109.981 203.192L124.025 206.692L129.837 183.401C153.785 187.933 171.793 186.105 179.373 164.445C185.481 147.005 179.069 136.945 166.469 130.385C175.645 128.269 182.557 122.233 184.401 109.765ZM152.313 154.761C147.973 172.201 118.609 162.773 109.089 160.409L116.801 129.493C126.321 131.869 156.849 136.573 152.313 154.761ZM156.657 109.513C152.697 125.377 128.257 117.317 120.329 115.341L127.321 87.3006C135.249 89.2776 160.781 92.9656 156.657 109.513Z" fill="white"/>
</g>
<defs>
<clipPath id="clip0_20873_29">
<rect width="256" height="256" fill="white"/>
</clipPath>
</defs>
</svg>

<svg width="256" height="256" viewBox="0 0 256 256" fill="none" xmlns="http://www.w3.org/2000/svg"><path d="M252.139 158.965c-17.096 68.571-86.547 110.303-155.126 93.203C28.46 235.072-13.27 165.617 3.833 97.049 20.923 28.47 90.374-13.266 158.933 3.83c68.576 17.096 110.303 86.56 93.207 155.135Z" fill="#F7931A"/><path d="M184.4 109.765c2.548-17.031-10.42-26.187-28.152-32.295L162 54.398l-14.044-3.5-5.6 22.464c-3.692-.92-7.484-1.788-11.252-2.648l5.64-22.612-14.036-3.5-5.756 23.064c-3.056-.696-6.056-1.384-8.968-2.108l.016-.072-19.367-4.836-3.736 15s10.42 2.388 10.2 2.536c5.687 1.42 6.715 5.184 6.543 8.168l-6.552 26.283c.393.1.9.244 1.46.468-.468-.116-.968-.244-1.484-.368l-9.183 36.82c-.696 1.728-2.46 4.32-6.436 3.336.14.204-10.208-2.548-10.208-2.548l-6.972 16.076 18.276 4.556c3.4.852 6.732 1.744 10.012 2.584l-5.812 23.335 14.028 3.5 5.755-23.087c3.832 1.04 7.552 2 11.192 2.904l-5.736 22.979 14.044 3.5 5.812-23.291c23.948 4.532 41.956 2.704 49.536-18.956 6.108-17.44-.304-27.5-12.904-34.06 9.176-2.116 16.088-8.152 17.932-20.62Zm-32.088 44.996c-4.34 17.44-33.704 8.012-43.224 5.648l7.712-30.916c9.52 2.376 40.048 7.08 35.512 25.268Zm4.344-45.248c-3.96 15.864-28.4 7.804-36.328 5.828l6.992-28.04c7.928 1.977 33.46 5.665 29.336 22.212Z" fill="#fff"/></svg>
